components/Common/Svg/svgs/titledObjectiveC.svg

<svg
  width="109"
  height="138"
  viewBox="0 0 109 138"
  fill="none"
  xmlns="http://www.w3.org/2000/svg"
>
  <path
    d="M7.128 115.148C8.304 115.148 9.36 115.424 10.296 115.976C11.244 116.528 11.988 117.302 12.528 118.298C13.068 119.282 13.338 120.398 13.338 121.646C13.338 122.894 13.068 124.016 12.528 125.012C11.988 125.996 11.244 126.764 10.296 127.316C9.36 127.868 8.304 128.144 7.128 128.144C5.952 128.144 4.884 127.868 3.924 127.316C2.976 126.764 2.232 125.996 1.692 125.012C1.152 124.016 0.882 122.894 0.882 121.646C0.882 120.398 1.152 119.282 1.692 118.298C2.232 117.302 2.976 116.528 3.924 115.976C4.884 115.424 5.952 115.148 7.128 115.148ZM7.128 116.678C6.252 116.678 5.466 116.882 4.77 117.29C4.086 117.686 3.546 118.262 3.15 119.018C2.766 119.762 2.574 120.638 2.574 121.646C2.574 122.642 2.766 123.518 3.15 124.274C3.546 125.03 4.086 125.612 4.77 126.02C5.466 126.416 6.252 126.614 7.128 126.614C7.992 126.614 8.766 126.41 9.45 126.002C10.146 125.594 10.686 125.018 11.07 124.274C11.466 123.518 11.664 122.642 11.664 121.646C11.664 120.638 11.466 119.762 11.07 119.018C10.686 118.262 10.146 117.686 9.45 117.29C8.766 116.882 7.992 116.678 7.128 116.678ZM21.0063 117.992C21.8823 117.992 22.6623 118.196 23.3463 118.604C24.0303 119.012 24.5643 119.6 24.9483 120.368C25.3443 121.136 25.5423 122.036 25.5423 123.068C25.5423 124.1 25.3443 125 24.9483 125.768C24.5643 126.524 24.0303 127.106 23.3463 127.514C22.6623 127.922 21.8823 128.126 21.0063 128.126C20.0463 128.126 19.2303 127.886 18.5583 127.406C17.8983 126.914 17.4423 126.272 17.1903 125.48V128H15.5523V114.68H17.1903V120.638C17.4423 119.846 17.8983 119.21 18.5583 118.73C19.2303 118.238 20.0463 117.992 21.0063 117.992ZM20.5383 119.45C19.9023 119.45 19.3263 119.6 18.8103 119.9C18.2943 120.188 17.8923 120.608 17.6043 121.16C17.3163 121.712 17.1723 122.348 17.1723 123.068C17.1723 123.788 17.3163 124.424 17.6043 124.976C17.8923 125.516 18.2943 125.936 18.8103 126.236C19.3263 126.536 19.9023 126.686 20.5383 126.686C21.5583 126.686 22.3683 126.368 22.9683 125.732C23.5803 125.084 23.8863 124.196 23.8863 123.068C23.8863 121.94 23.5803 121.058 22.9683 120.422C22.3683 119.774 21.5583 119.45 20.5383 119.45ZM28.6172 116.228C28.2812 116.228 28.0052 116.138 27.7892 115.958C27.5852 115.766 27.4832 115.52 27.4832 115.22C27.4832 114.92 27.5852 114.68 27.7892 114.5C28.0052 114.308 28.2812 114.212 28.6172 114.212C28.9412 114.212 29.2052 114.308 29.4092 114.5C29.6132 114.68 29.7152 114.92 29.7152 115.22C29.7152 115.52 29.6132 115.766 29.4092 115.958C29.2052 116.138 28.9412 116.228 28.6172 116.228ZM25.8632 131.24H26.5472C26.9792 131.24 27.2912 131.144 27.4832 130.952C27.6872 130.76 27.7892 130.43 27.7892 129.962V118.118H29.4452V130.016C29.4452 131.792 28.5452 132.68 26.7452 132.68H25.8632V131.24ZM41.1481 122.51C41.1481 122.858 41.1241 123.158 41.0761 123.41H33.1741C33.2101 124.538 33.5281 125.384 34.1281 125.948C34.7401 126.512 35.4841 126.794 36.3601 126.794C37.1521 126.794 37.8121 126.596 38.3401 126.2C38.8801 125.792 39.2101 125.252 39.3301 124.58H41.0761C40.9561 125.264 40.6861 125.876 40.2661 126.416C39.8581 126.956 39.3241 127.376 38.6641 127.676C38.0041 127.976 37.2601 128.126 36.4321 128.126C35.4841 128.126 34.6441 127.922 33.9121 127.514C33.1801 127.106 32.6041 126.524 32.1841 125.768C31.7761 125 31.5721 124.1 31.5721 123.068C31.5721 122.036 31.7761 121.136 32.1841 120.368C32.6041 119.6 33.1801 119.012 33.9121 118.604C34.6441 118.196 35.4841 117.992 36.4321 117.992C37.3921 117.992 38.2261 118.196 38.9341 118.604C39.6541 119.012 40.2001 119.558 40.5721 120.242C40.9561 120.926 41.1481 121.682 41.1481 122.51ZM39.4921 122.618C39.5281 121.886 39.4081 121.274 39.1321 120.782C38.8561 120.29 38.4781 119.924 37.9981 119.684C37.5181 119.444 36.9961 119.324 36.4321 119.324C35.5321 119.324 34.7761 119.606 34.1641 120.17C33.5521 120.722 33.2221 121.538 33.1741 122.618H39.4921ZM47.6646 117.992C48.9246 117.992 49.9686 118.328 50.7966 119C51.6246 119.672 52.1346 120.572 52.3266 121.7H50.5986C50.4786 120.992 50.1486 120.44 49.6086 120.044C49.0806 119.636 48.4206 119.432 47.6286 119.432C47.0526 119.432 46.5246 119.564 46.0446 119.828C45.5766 120.092 45.1986 120.5 44.9106 121.052C44.6226 121.592 44.4786 122.264 44.4786 123.068C44.4786 123.872 44.6226 124.55 44.9106 125.102C45.1986 125.642 45.5766 126.044 46.0446 126.308C46.5246 126.572 47.0526 126.704 47.6286 126.704C48.4206 126.704 49.0806 126.5 49.6086 126.092C50.1486 125.684 50.4786 125.126 50.5986 124.418H52.3266C52.1346 125.558 51.6246 126.464 50.7966 127.136C49.9686 127.796 48.9246 128.126 47.6646 128.126C46.7166 128.126 45.8766 127.922 45.1446 127.514C44.4126 127.106 43.8366 126.524 43.4166 125.768C43.0086 125 42.8046 124.1 42.8046 123.068C42.8046 122.036 43.0086 121.136 43.4166 120.368C43.8366 119.6 44.4126 119.012 45.1446 118.604C45.8766 118.196 46.7166 117.992 47.6646 117.992ZM59.1863 126.56V128H57.9623C56.9543 128 56.1983 127.76 55.6943 127.28C55.2023 126.8 54.9563 125.996 54.9563 124.868V119.54H53.4803V118.118H54.9563V115.652H56.6123V118.118H59.1683V119.54H56.6123V124.904C56.6123 125.54 56.7263 125.978 56.9543 126.218C57.1943 126.446 57.6023 126.56 58.1783 126.56H59.1863ZM60.8971 115.22C60.8971 114.92 60.9991 114.68 61.2031 114.5C61.4071 114.308 61.6771 114.212 62.0131 114.212C62.3491 114.212 62.6191 114.308 62.8231 114.5C63.0271 114.68 63.1291 114.92 63.1291 115.22C63.1291 115.52 63.0271 115.766 62.8231 115.958C62.6191 116.138 62.3491 116.228 62.0131 116.228C61.6771 116.228 61.4071 116.138 61.2031 115.958C60.9991 115.766 60.8971 115.52 60.8971 115.22ZM62.8231 118.118V128H61.1851V118.118H62.8231ZM69.2906 126.254L72.3506 118.118H74.1146L70.2446 128H68.3006L64.4306 118.118H66.1946L69.2906 126.254ZM84.8122 122.51C84.8122 122.858 84.7882 123.158 84.7402 123.41H76.8382C76.8742 124.538 77.1922 125.384 77.7922 125.948C78.4042 126.512 79.1482 126.794 80.0242 126.794C80.8162 126.794 81.4762 126.596 82.0042 126.2C82.5442 125.792 82.8742 125.252 82.9942 124.58H84.7402C84.6202 125.264 84.3502 125.876 83.9302 126.416C83.5222 126.956 82.9882 127.376 82.3282 127.676C81.6682 127.976 80.9242 128.126 80.0962 128.126C79.1482 128.126 78.3082 127.922 77.5762 127.514C76.8442 127.106 76.2682 126.524 75.8482 125.768C75.4402 125 75.2362 124.1 75.2362 123.068C75.2362 122.036 75.4402 121.136 75.8482 120.368C76.2682 119.6 76.8442 119.012 77.5762 118.604C78.3082 118.196 79.1482 117.992 80.0962 117.992C81.0562 117.992 81.8902 118.196 82.5982 118.604C83.3182 119.012 83.8642 119.558 84.2362 120.242C84.6202 120.926 84.8122 121.682 84.8122 122.51ZM83.1562 122.618C83.1922 121.886 83.0722 121.274 82.7962 120.782C82.5202 120.29 82.1422 119.924 81.6622 119.684C81.1822 119.444 80.6602 119.324 80.0962 119.324C79.1962 119.324 78.4402 119.606 77.8282 120.17C77.2162 120.722 76.8862 121.538 76.8382 122.618H83.1562ZM92.5706 120.71V122.096H85.3706V120.71H92.5706ZM101.412 115.184C102.96 115.184 104.238 115.568 105.246 116.336C106.254 117.092 106.95 118.13 107.334 119.45H105.606C105.282 118.61 104.76 117.944 104.04 117.452C103.32 116.948 102.438 116.696 101.394 116.696C100.566 116.696 99.8224 116.9 99.1624 117.308C98.5144 117.704 97.9984 118.28 97.6144 119.036C97.2424 119.78 97.0564 120.656 97.0564 121.664C97.0564 122.66 97.2424 123.53 97.6144 124.274C97.9984 125.018 98.5144 125.594 99.1624 126.002C99.8224 126.398 100.566 126.596 101.394 126.596C102.438 126.596 103.32 126.35 104.04 125.858C104.76 125.354 105.282 124.682 105.606 123.842H107.334C106.95 125.162 106.254 126.206 105.246 126.974C104.238 127.73 102.96 128.108 101.412 128.108C100.224 128.108 99.1744 127.838 98.2624 127.298C97.3504 126.746 96.6364 125.984 96.1204 125.012C95.6164 124.028 95.3644 122.912 95.3644 121.664C95.3644 120.404 95.6164 119.282 96.1204 118.298C96.6364 117.314 97.3504 116.552 98.2624 116.012C99.1744 115.46 100.224 115.184 101.412 115.184Z"
    fill="#A0A0A0"
  ></path>
  <path
    d="M52.9123 79.9989C35.7169 79.9989 21.1348 65.4754 21.0008 48.1712C20.9709 43.9968 21.7699 39.8581 23.3514 35.9948C24.9329 32.1315 27.2656 28.6206 30.2141 25.6656C33.182 22.6259 36.7243 20.2061 40.6352 18.5468C44.5461 16.8876 48.7478 16.0219 52.9961 16C57.1676 15.9963 61.2986 16.8181 65.1511 18.418C69.0036 20.018 72.5014 22.3644 75.443 25.3222C78.4337 28.2376 80.8179 31.716 82.4581 35.557C84.0983 39.398 84.9621 43.5257 84.9997 47.7021C85.0377 56.1983 81.7116 64.3643 75.7479 70.4158C69.7842 76.4674 61.6678 79.9127 53.1719 79.9989H52.9123ZM53.0128 17.6752C48.987 17.6987 45.006 18.5216 41.3008 20.096C37.5956 21.6704 34.2399 23.965 31.4286 26.8466C28.6322 29.6423 26.4185 32.9653 24.9161 36.623C23.4136 40.2807 22.6522 44.2002 22.676 48.1544C22.8016 64.5541 36.6215 78.307 52.9039 78.307H53.1217C61.1776 78.234 68.877 74.9745 74.5367 69.2411C80.1963 63.5077 83.3559 55.7667 83.3245 47.7105C83.2869 43.7539 82.4668 39.8438 80.9115 36.2055C79.3561 32.5672 77.0962 29.2726 74.262 26.5115C71.481 23.7059 68.1708 21.4802 64.5232 19.9633C60.8756 18.4465 56.9632 17.6687 53.0128 17.6752Z"
    fill="#6A6A6A"
  ></path>
  <path
    d="M28.1797 57.3592V38.6646H32.7277V40.3397H30.3155V55.7175H32.7277V57.3927L28.1797 57.3592Z"
    fill="#6A6A6A"
  ></path>
  <path
    d="M43.6147 47.8276C43.6147 51.2365 41.5459 53.1797 38.7401 53.1797C35.9342 53.1797 34.0664 50.9936 34.0664 48.0035C34.0664 44.8793 36.0263 42.6765 38.8908 42.6765C41.7553 42.6765 43.6147 44.9715 43.6147 47.8276ZM36.0263 47.9783C36.0263 50.0471 37.0649 51.6888 38.8489 51.6888C40.633 51.6888 41.6548 50.0136 41.6548 47.903C41.6548 45.9849 40.7084 44.1758 38.8489 44.1758C36.9895 44.1758 36.0096 45.9263 36.0096 48.0202L36.0263 47.9783Z"
    fill="#6A6A6A"
  ></path>
  <path
    d="M45.1875 43.0286C46.0782 42.8748 46.9806 42.7991 47.8845 42.8025C48.8998 42.7033 49.9205 42.9291 50.7992 43.4474C51.1287 43.6414 51.4002 43.92 51.5858 44.2543C51.7714 44.5886 51.8642 44.9665 51.8546 45.3487C51.8425 45.8454 51.6741 46.3256 51.3734 46.7211C51.0727 47.1166 50.6549 47.4072 50.1794 47.5515C50.7588 47.6694 51.2796 47.9839 51.6536 48.4419C52.0276 48.8998 52.2318 49.473 52.2315 50.0642C52.2378 50.4647 52.1529 50.8614 51.9831 51.2242C51.8133 51.587 51.5631 51.9064 51.2515 52.1582C50.5312 52.7947 49.3335 53.1046 47.4824 53.1046C46.721 53.1084 45.96 53.0636 45.2043 52.9706L45.1875 43.0286ZM47.0302 47.0406H47.9766C49.2581 47.0406 49.9784 46.4375 49.9784 45.5748C49.9784 44.7121 49.2581 44.1845 48.0771 44.1845C47.7237 44.1724 47.3699 44.1977 47.0218 44.2599L47.0302 47.0406ZM47.0302 51.7142C47.3557 51.7478 47.6829 51.7618 48.0101 51.7561C49.1995 51.7561 50.2548 51.3038 50.2548 50.081C50.2548 48.8581 49.233 48.4058 47.9515 48.4058H47.0302V51.7142Z"
    fill="#6A6A6A"
  ></path>
  <path
    d="M55.8975 42.8947H57.7486V49.5031C57.7486 52.309 56.3917 53.247 54.3983 53.247C53.8652 53.2426 53.3363 53.1521 52.832 52.979L53.0582 51.4881C53.4299 51.6042 53.8163 51.6663 54.2056 51.6724C55.261 51.6724 55.8808 51.1866 55.8808 49.4277L55.8975 42.8947Z"
    fill="#6A6A6A"
  ></path>
  <path
    d="M63.013 48.3971V49.6786H59.1602V48.3971H63.013Z"
    fill="#6A6A6A"
  ></path>
  <path
    d="M72.0086 52.7532C71.1759 53.0852 70.2829 53.2392 69.387 53.2054C66.1624 53.2054 64.2025 51.1869 64.2025 48.0963C64.1643 47.3761 64.2791 46.6561 64.5392 45.9835C64.7993 45.311 65.1988 44.7011 65.7114 44.1939C66.2241 43.6868 66.8383 43.2939 67.5137 43.0412C68.189 42.7884 68.9103 42.6815 69.6299 42.7274C70.4905 42.6918 71.3484 42.8462 72.1426 43.1797L71.7322 44.6538C71.1023 44.3857 70.4234 44.2516 69.7388 44.2602C67.67 44.2602 66.1791 45.5584 66.1791 48.0041C66.1791 50.2321 67.4941 51.6727 69.722 51.6727C70.4133 51.6827 71.0995 51.5545 71.7406 51.2958L72.0086 52.7532Z"
    fill="#6A6A6A"
  ></path>
  <path
    d="M77.8254 38.6141V57.359H73.2773V55.6839H75.6896V40.2893H73.2773V38.6141H77.8254Z"
    fill="#6A6A6A"
  ></path>
</svg>

<svg width="109" height="138" viewBox="0 0 109 138" fill="none" xmlns="http://www.w3.org/2000/svg"><path d="M7.128 115.148c1.176 0 2.232.276 3.168.828a5.858 5.858 0 0 1 2.232 2.322c.54.984.81 2.1.81 3.348 0 1.248-.27 2.37-.81 3.366a5.89 5.89 0 0 1-2.232 2.304c-.936.552-1.992.828-3.168.828-1.176 0-2.244-.276-3.204-.828a5.89 5.89 0 0 1-2.232-2.304c-.54-.996-.81-2.118-.81-3.366 0-1.248.27-2.364.81-3.348a5.858 5.858 0 0 1 2.232-2.322c.96-.552 2.028-.828 3.204-.828Zm0 1.53c-.876 0-1.662.204-2.358.612-.684.396-1.224.972-1.62 1.728-.384.744-.576 1.62-.576 2.628 0 .996.192 1.872.576 2.628.396.756.936 1.338 1.62 1.746.696.396 1.482.594 2.358.594.864 0 1.638-.204 2.322-.612a4.174 4.174 0 0 0 1.62-1.728c.396-.756.594-1.632.594-2.628 0-1.008-.198-1.884-.594-2.628-.384-.756-.924-1.332-1.62-1.728-.684-.408-1.458-.612-2.322-.612Zm13.878 1.314c.876 0 1.656.204 2.34.612.684.408 1.218.996 1.602 1.764.396.768.594 1.668.594 2.7 0 1.032-.198 1.932-.594 2.7-.384.756-.918 1.338-1.602 1.746-.684.408-1.464.612-2.34.612-.96 0-1.776-.24-2.448-.72a3.769 3.769 0 0 1-1.368-1.926V128h-1.638v-13.32h1.638v5.958a3.675 3.675 0 0 1 1.368-1.908c.672-.492 1.488-.738 2.448-.738Zm-.468 1.458c-.636 0-1.212.15-1.728.45a2.985 2.985 0 0 0-1.206 1.26c-.288.552-.432 1.188-.432 1.908s.144 1.356.432 1.908c.288.54.69.96 1.206 1.26.516.3 1.092.45 1.728.45 1.02 0 1.83-.318 2.43-.954.612-.648.918-1.536.918-2.664 0-1.128-.306-2.01-.918-2.646-.6-.648-1.41-.972-2.43-.972Zm8.08-3.222c-.337 0-.613-.09-.829-.27a.969.969 0 0 1-.306-.738c0-.3.102-.54.306-.72.216-.192.492-.288.828-.288.324 0 .588.096.792.288.204.18.306.42.306.72s-.102.546-.306.738c-.204.18-.468.27-.792.27Zm-2.755 15.012h.684c.432 0 .744-.096.936-.288.204-.192.306-.522.306-.99v-11.844h1.656v11.898c0 1.776-.9 2.664-2.7 2.664h-.882v-1.44Zm15.285-8.73c0 .348-.024.648-.072.9h-7.902c.036 1.128.354 1.974.954 2.538.612.564 1.356.846 2.232.846.792 0 1.452-.198 1.98-.594.54-.408.87-.948.99-1.62h1.746a4.098 4.098 0 0 1-.81 1.836c-.408.54-.942.96-1.602 1.26-.66.3-1.404.45-2.232.45-.948 0-1.788-.204-2.52-.612a4.399 4.399 0 0 1-1.728-1.746c-.408-.768-.612-1.668-.612-2.7 0-1.032.204-1.932.612-2.7a4.37 4.37 0 0 1 1.728-1.764c.732-.408 1.572-.612 2.52-.612.96 0 1.794.204 2.502.612.72.408 1.266.954 1.638 1.638.384.684.576 1.44.576 2.268Zm-1.656.108c.036-.732-.084-1.344-.36-1.836a2.632 2.632 0 0 0-1.134-1.098 3.452 3.452 0 0 0-1.566-.36c-.9 0-1.656.282-2.268.846-.612.552-.942 1.368-.99 2.448h6.318Zm8.173-4.626c1.26 0 2.304.336 3.132 1.008.828.672 1.338 1.572 1.53 2.7h-1.728c-.12-.708-.45-1.26-.99-1.656-.528-.408-1.188-.612-1.98-.612-.576 0-1.104.132-1.584.396-.468.264-.846.672-1.134 1.224-.288.54-.432 1.212-.432 2.016s.144 1.482.432 2.034c.288.54.666.942 1.134 1.206.48.264 1.008.396 1.584.396.792 0 1.452-.204 1.98-.612.54-.408.87-.966.99-1.674h1.728c-.192 1.14-.702 2.046-1.53 2.718-.828.66-1.872.99-3.132.99-.948 0-1.788-.204-2.52-.612a4.399 4.399 0 0 1-1.728-1.746c-.408-.768-.612-1.668-.612-2.7 0-1.032.204-1.932.612-2.7a4.37 4.37 0 0 1 1.728-1.764c.732-.408 1.572-.612 2.52-.612Zm11.521 8.568V128h-1.224c-1.008 0-1.764-.24-2.268-.72-.492-.48-.738-1.284-.738-2.412v-5.328H53.48v-1.422h1.476v-2.466h1.656v2.466h2.556v1.422h-2.556v5.364c0 .636.114 1.074.342 1.314.24.228.648.342 1.224.342h1.008Zm1.711-11.34c0-.3.102-.54.306-.72.204-.192.474-.288.81-.288.336 0 .606.096.81.288.204.18.306.42.306.72s-.102.546-.306.738c-.204.18-.474.27-.81.27-.336 0-.606-.09-.81-.27a.969.969 0 0 1-.306-.738Zm1.926 2.898V128h-1.638v-9.882h1.638Zm6.468 8.136 3.06-8.136h1.764L70.245 128H68.3l-3.87-9.882h1.764l3.096 8.136Zm15.521-3.744c0 .348-.024.648-.072.9h-7.902c.036 1.128.354 1.974.954 2.538.612.564 1.356.846 2.232.846.792 0 1.452-.198 1.98-.594.54-.408.87-.948.99-1.62h1.746a4.098 4.098 0 0 1-.81 1.836c-.408.54-.942.96-1.602 1.26-.66.3-1.404.45-2.232.45-.948 0-1.788-.204-2.52-.612a4.399 4.399 0 0 1-1.728-1.746c-.408-.768-.612-1.668-.612-2.7 0-1.032.204-1.932.612-2.7a4.37 4.37 0 0 1 1.728-1.764c.732-.408 1.572-.612 2.52-.612.96 0 1.794.204 2.502.612.72.408 1.266.954 1.638 1.638.384.684.576 1.44.576 2.268Zm-1.656.108c.036-.732-.084-1.344-.36-1.836a2.632 2.632 0 0 0-1.134-1.098 3.452 3.452 0 0 0-1.566-.36c-.9 0-1.656.282-2.268.846-.612.552-.942 1.368-.99 2.448h6.318Zm9.415-1.908v1.386h-7.2v-1.386h7.2Zm8.841-5.526c1.548 0 2.826.384 3.834 1.152 1.008.756 1.704 1.794 2.088 3.114h-1.728a4.18 4.18 0 0 0-1.566-1.998c-.72-.504-1.602-.756-2.646-.756-.828 0-1.572.204-2.232.612-.648.396-1.164.972-1.548 1.728-.372.744-.558 1.62-.558 2.628 0 .996.186 1.866.558 2.61.384.744.9 1.32 1.548 1.728.66.396 1.404.594 2.232.594 1.044 0 1.926-.246 2.646-.738a4.284 4.284 0 0 0 1.566-2.016h1.728c-.384 1.32-1.08 2.364-2.088 3.132-1.008.756-2.286 1.134-3.834 1.134-1.188 0-2.238-.27-3.15-.81a5.786 5.786 0 0 1-2.142-2.286c-.504-.984-.756-2.1-.756-3.348 0-1.26.252-2.382.756-3.366.516-.984 1.23-1.746 2.142-2.286.912-.552 1.962-.828 3.15-.828Z" fill="#A0A0A0"/><path d="M52.912 79.999c-17.195 0-31.777-14.524-31.911-31.828a31.544 31.544 0 0 1 9.213-22.505A32.072 32.072 0 0 1 52.996 16a31.62 31.62 0 0 1 22.447 9.322A31.653 31.653 0 0 1 85 47.702 32.154 32.154 0 0 1 53.172 80h-.26Zm.1-62.324a30.402 30.402 0 0 0-21.583 9.172 29.875 29.875 0 0 0-8.753 21.307c.126 16.4 13.945 30.153 30.228 30.153h.218a30.48 30.48 0 0 0 30.203-30.596 29.995 29.995 0 0 0-9.063-21.2 29.852 29.852 0 0 0-21.25-8.836Z" fill="#6A6A6A"/><path d="M28.18 57.36V38.664h4.548v1.675h-2.413v15.377h2.413v1.676l-4.548-.034ZM43.615 47.828c0 3.408-2.07 5.352-4.875 5.352-2.806 0-4.674-2.186-4.674-5.176 0-3.125 1.96-5.328 4.825-5.328 2.864 0 4.724 2.295 4.724 5.152Zm-7.589.15c0 2.07 1.039 3.71 2.823 3.71s2.806-1.674 2.806-3.785c0-1.918-.947-3.727-2.806-3.727-1.86 0-2.84 1.75-2.84 3.844l.017-.042ZM45.188 43.029c.89-.154 1.793-.23 2.697-.227a4.815 4.815 0 0 1 2.914.645 2.144 2.144 0 0 1 1.056 1.902 2.363 2.363 0 0 1-1.676 2.203 2.563 2.563 0 0 1 2.052 2.512 2.639 2.639 0 0 1-.98 2.094c-.72.637-1.917.947-3.769.947a17.92 17.92 0 0 1-2.278-.134l-.017-9.942Zm1.842 4.012h.947c1.281 0 2.001-.603 2.001-1.466s-.72-1.39-1.9-1.39a5.023 5.023 0 0 0-1.056.075l.008 2.78Zm0 4.673c.326.034.653.048.98.042 1.19 0 2.245-.452 2.245-1.675s-1.022-1.675-2.303-1.675h-.922v3.308ZM55.898 42.895h1.85v6.608c0 2.806-1.356 3.744-3.35 3.744a4.95 4.95 0 0 1-1.566-.268l.226-1.49c.372.115.758.177 1.148.183 1.055 0 1.675-.485 1.675-2.244l.017-6.533ZM63.013 48.397v1.282H59.16v-1.282h3.853ZM72.009 52.753a6.425 6.425 0 0 1-2.622.452c-3.225 0-5.184-2.018-5.184-5.109a5.108 5.108 0 0 1 5.427-5.369 5.864 5.864 0 0 1 2.513.453l-.41 1.474a4.932 4.932 0 0 0-1.994-.394c-2.069 0-3.56 1.298-3.56 3.744 0 2.228 1.315 3.669 3.543 3.669a5.193 5.193 0 0 0 2.019-.377l.268 1.457ZM77.825 38.614V57.36h-4.548v-1.675h2.413V40.289h-2.413v-1.675h4.548Z" fill="#6A6A6A"/></svg>
